X:682
T:Sweet Journeys
C:George Wilson
M:3/4
L:1/8
K:D
"D"D3 F A2|d f3 e2|"G"d3 B G2|"D"A3 B/A/ G2|F3 A d2|\
f a3 b2|"Em"a3 f d2|"A7"e3 d ef|
"G"g3 a bg|"D"a2 f2 d2|"G"B3 A G2|\
"A7"A3 B/A/ G2|"D"F d3 f2|"A7"e3 d c2|1 "D"(d6|d3) A FE :|
|2 (d6|d4) a2||"G"b3 a g2|b d'3 b2|"D"a3 f d2|d4 A2|\
"G"B g3 B2|"D"A f3 a2|"Em"a3 g f2|"A7"e3 d ef|
"G"g3 a b2|"A7"c'3 d' e'2|"D"d'2 a2 f2|"G"b3 c' d'2|\
"D"a2 f2 d2|"G"B g3 "A7"c2|1 "D"(d6|d4) a2 :|2 "D"(d6|d3) A FE|
